X: 0038
T: S\"oderstens vals.   Efter Lars Orre.
C: C.G.
%R: waltz
B: Paul B\"ackstr\"om's "L\aatar fr\aan Dalarna" collection" 1974
Z: 2022 John Chambers <jc:trillian.mit.edu>
M: 3/4
L: 1/8
K: Gm
% - - - - - - - - - -
G2 |:\
G2 B2 d2 | g4 g2 | (fg) fe dc | B4 (3(ABA) |\
G^F GA Bc | d2 dB G2 | (3(BcB) A2 ^F2 | G4 G2 :|
|:\
{Bc}B2 Bd =fd | {de}d2 BG BG | {AB}A2 Ac ec | {cd}c2 AF AF |\
G2 GA Bc | d2 dB G2 | {Bc}B2 A2 ^F2 | G4 :|
% - - - - - - - - - -
N: K.E.F. 31.
N: Jmf. S.L. nr 481,631.
N: L\aaten kallas av \"alvdalsspelm\"annen "Silkesvalsen".
